X: 1
T: Andy McGann's
M: 4/4
L: 1/8
R: reel
K: Edor
E2ed ~B3c|dBBc dBAF|E2ed Bcde|fdef dBAF|
EB~B2 dB~B2|EBBd BAFB|BAAF ABde|1fdef dBAF:|2fdef d3g||
a3g fdde|f2af dBAe|fa~a2 b2af|egfe defg|
adgd fdde|f2af dBAe|fa~a2 b2af|1egfe defg:|2egfe dBAF||
